X: 39966
T: Three Around Three
R: barndance
M: 4/4
K: Gmajor
[B2G2]- [B2G2] [G2c2]|:d2 [GB]A G2 G2|A2 BA G2 D2|EDEF G2 AB|c2 B2 B2 A/c/e|
d2 BA G2 G2|A2 BA G2 D2|EDEF G2 c/A/c|1 B2 A2 G2 B2:|2 B2 A2 G2- [G2B2]||
d2 ef gfed|e2 e2 e2 ce|d2 B2 B2 G2|FA-AF A2 ce|
d2 ef gfed|e2 e2 e2 d2|ef g2 fgaf|g2 [B2G2]- [B2G2] [G2c2]|
d2 ef gfed|e2 e2 e2 ce|d2 B2 B2 G<D|FGAB A2 ce|
d2 ef gfed|e2 e2 e2 d2|ef g2 fgaf|g2||

